src/images/TDS/Tile.svg

<svg fill="none" height="120" viewBox="0 0 120 120" width="120" xmlns="http://www.w3.org/2000/svg" xmlns:xlink="http://www.w3.org/1999/xlink"><clipPath id="a"><path d="m15 26h90v68.7328h-90z"/></clipPath><path d="m0 0h120v120h-120z" fill="#54426a"/><g clip-path="url(#a)" fill="#fff"><path d="m49.7343 41.4287c.4635-.7528 4.273 1.1482 7.0951 7.7233s3.4269 10.1661 4.4159 18.3081c.989 8.1419.5403 9.8812-.4598 14.26-1.0001 4.3787-6.4198 11.4607-12.4821 12.3041-6.0624.8435-12.0413-8.1464-17.199-15.4709s-2.4333-8.8676-3.7436-12.6831c-1.3102-3.8155-2.8037-3.4116-3.3132-5.4596-.5094-2.048-.0365-4.2348-.5071-7.5772-.4706-3.3423-1.5515-2.872-1.6282-5.219s.9405-4.4938 1.3207-4.1686c.3803.3253-.5719 1.614 0 3.6075.572 1.9935 1.2881 2.3932 2.016 5.5124.7279 3.1191.303 4.9879.8956 6.9632s2.0745.7537 3.8162 5.1985-1.4352 5.8376 3.1506 12.5783c4.5857 6.7407 10.7305 14.763 15.192 14.3832 4.4615-.3797 9.3112-7.7284 10.0733-11.6765s.9711-5.6193.4715-10.7501c-.4995-5.1308-1.4171-12.2951-3.6399-19.3211s-5.9373-7.7598-5.474-8.5125z"/><path d="m28.7746 44.8s4.644.2414 8.9369-1.4517c4.2929-1.693 8.2348-5.3208 8.2348-5.3208s.8372-.5362 1.4051.1962-.2312 1.56-.2312 1.56-4.1606 4.3003-8.7471 5.9679-7.4724.8828-9.5985.8881-4.4389-.2638-3.9793-1.8397c.4596-1.576 3.3256-4.4727 5.8183-4.6493 2.4927-.1765 4.2844 4.6493 4.2844 4.6493l-2.305.4301s-.5417-3.1069-1.9791-3.1069-3.8812 2.3394-3.8812 2.3394z"/><path d="m42.6944 54.6038c.8388 2.2061 3.9123 2.3048 4.6596.4229s-1.5419-3.8289-.8951-4.0878 3.0524.7466 3.1018 3.6649c.0495 2.9184-1.9509 4.0386-4.2297 4.0386s-4.6954-1.311-4.7446-4.0386c-.0491-2.7275 3.5178-4.6023 3.8492-4.0385s-2.5796 1.8325-1.7412 4.0385z"/><path d="m31.3702 55.874c-.9381 1.4596-.2251 2.5153 1.7844 2.2564 2.0094-.2589 2.2003-1.1452 2.7408-.705.5404.4402.214.8461-1.3798 2.0729-1.5938 1.2267-5.3528.3666-5.4025-1.6503s.1903-3.666 2.2569-4.3712c2.0667-.7051 4.8579 1.0016 4.5252 1.565s-3.5872-.6272-4.525.8322z"/><path d="m37.9488 66.4206c1.2689-.1763 1.1633-1.5678 2.961-1.8085s4.0639.2878 4.2296.8461c.1656.5583-1.3242.1997-3.2852.9627-1.961.7631-2.7775 2.1804-4.3284 2.2297-1.5509.0494-1.5737-3.2343-1.4097-3.7566.1639-.5223.5638 1.7027 1.8327 1.5266z"/><path d="m44.1531 77.672-2.5379-2.0958-1.0789-2.8589s-3.4896 3.2859-2.9609 2.2061c.5287-1.0799.5198-2.8298 2.1642-4.4614 1.6444-1.6317 2.5379-2.0651 2.5379-2.0651l.9376.6131-.9376 1.4517s.6946 3.183 3.1022 4.4617c2.4076 1.2786 4.7291 1.1085 6.528.6528s1.2567-2.2035 1.128-2.859c-.1288-.6555-1.3608-2.065-3.0526-2.8685-1.6919-.8035-7.7052.6132-7.7052.6132v-2.065s5.4494-1.3392 8.6921 0c3.2427 1.3391 3.6992 2.4756 4.3213 4.8846.6222 2.409-.5784 3.8853-2.5751 4.9825-1.9967 1.0973-4.8973-1.0854-6.4974-.2819-1.6002.8036-2.2666 4.1725-4.6036 4.5597-2.3369.3873-3.0295-.8-4.0394-2.305s0-3.7143 0-3.7143 1.2601 1.3275 2.1642 2.2561c.9042.9286.2307 1.7937 1.4523 1.4589 1.2215-.3348 2.9608-2.5655 2.9608-2.5655z"/><path d="m61.7635 43.4032c2.9104-7.4899 8.7465-16.938 9.8771-15.2154 1.1307 1.7226-1.4881 2.9871-3.5024 6.8697s-3.0817 6.002-4.991 12.39c-1.9094 6.388-2.073 8.9517 1.2648 16.0154 3.3377 7.0637 7.1616 11.792 12.0853 12.2394 4.9237.4475 4.3306.0671 5.9645-1.4208 1.6339-1.488 5.8971-7.0148 7.9114-10.8188s.4334-8.0077 1.6449-12.2954c1.2114-4.2878 2.4914-2.7746 2.8603-4.8553.3689-2.0806-.1632-5.1072-.3311-8.6481s.8392-3.6304 0-5.5156-3.961-3.9605-3.3569-4.6318c.604-.6713 5.2146 2.6179 6.0426 4.1059.8279 1.4881 0 .9482 0 4.6206s.6713 7.4623 0 10.069c-.6713 2.6068-1.936 2.2376-2.6857 4.8553-.7496 2.6176.596 6.763-2.0142 13.0453-2.6101 6.2822-6.1101 9.0285-8.4264 12.0829-2.3164 3.0543-2.8312 2.3718-7.6094 2.1592-4.7782-.2125-10.1925-3.9914-13.8759-12.7542s-3.7685-14.8074-.8579-22.2973z"/><path d="m74.9294 40.4262c-2.3197.4421-2.7653 2.9824-1.0414 4.0459 1.724 1.0634 3.4425-.8392 4.1833-.1703.7409.6689-1.2672 2.8759-4.1505 2.4168s-3.6394-2.6239-3.2429-4.8679c.3964-2.2441 2.3734-3.7194 5.0692-3.2932 2.6958.4263 3.3076 3.0878 2.3249 3.2954-.9827.2077-.8233-1.8691-3.1426-1.4267z"/><path d="m88.426 46.5327c2.0877-1.1015 1.2029-4.4218-.7565-4.934-1.9595-.5122-3.4872 2.2251-4.1377 2.148s.3698-3.1201 3.2604-3.5247 4.2471 1.4439 4.5249 3.7051c.2777 2.2613-1.1805 4.25-3.8823 4.6311-2.7019.3811-5.0701-.6861-3.903-2.0255 1.1672-1.3393 2.8063 1.1012 4.8942 0z"/><path d="m85.709 41.2701h.8962c.3083.9559.4736 1.9521.4904 2.9564 0 1.5443-.4904 3.2209-.4904 3.2209h-.8962s.4904-1.6857.4904-3.2301c-.0162-1.0013-.1815-1.9946-.4904-2.9472z"/><path d="m78.5773 52.6831c1.5199.2348 2.7404-.2033 4.3226.2818 1.5822.485 2.2271 1.3437 2.0062 1.6581-.2208.3144-.6823-.431-2.382-.5637-1.6998-.1327-2.7697.1938-4.1957-.3147-1.4261-.5084-2.0767-1.2776-1.5085-1.7192s.2375.4228 1.7574.6577z"/><path d="m69.4671 57.2107c-.1108-1.2735.1661-3.1089 2.801-3.5836 2.6348-.4746 4.5893 6.5895 6.6462 6.7477s4.0334-2.4265 6.2745-2.8478c2.2412-.4213 2.0057.6586 2.1126 1.1076.1068.4489-1.685.6881-1.685.6881s-3.5371 1.8353-6.7021 3.0535-5.8845-7.4478-7.018-6.7476c-1.1334.7001.4409 6.4509 2.4842 9.5482 2.0433 3.0974 5.2697 2.5789 5.2697 2.5789l.7913-4.161v-2.5316l1.9111-.6882v3.2195l-.5346 3.2671s3.0543-3.3227 3.7984-3.2671c.744.0557-1.2818 7.4359-8.2366 6.3285-6.9549-1.1074-7.8019-11.4387-7.9127-12.7122z"/><path d="m38.4651 26.5485c12.5581-2.7941 29.2668 5.996 29.2668 5.996l-2.1112 3.2738s-14.9902-8.4693-26.2681-5.9116c-11.2779 2.5578-17.284 11.9916-20.0789 21.3454s3.9105 21.0341 7.5925 25.3392c3.6819 4.3052 7.1966 5.8761 7.1966 5.8761l6.2373 7.9148s-12.4624-4.7489-18.4236-13.7908-8.5045-15.1699-5.7936-28.1334 9.8242-19.1153 22.3822-21.9095z"/><path d="m74.109 28.2476c1.1799-.2739 5.5614 3.8315 9.8937 3.1308 4.3324-.7007 3.9248-4.6217 5.2327-4.6217 1.3078 0-.5304 4.1744 0 4.6216.5303.4472 3.0132-.9467 3.6095-.3504.5963.5964-.1488 2.788-5.763 3.1384-2.532.158-6.7666-.0261-9.2004-1.3939-2.9023-1.6311-4.9525-4.2508-3.7725-4.5248z"/><path d="m54.4253 90.9675s4.0873.6392 14.4004-.61c10.313-1.2492 24.0351-13.0302 30.3775-30.0301 6.3428-16.9999-2.3286-25.2889-2.3286-25.2889l.4466-1.7236s10.1728 8.4104 7.1018 21.7935c-3.07 13.3831-5.6294 19.8596-19.384 31.739-13.7545 11.8795-35.3769 6.8111-35.3769 6.8111z"/></g></svg>

<svg width="120" height="120" viewBox="0 0 120 120" fill="none" xmlns="http://www.w3.org/2000/svg">
<rect width="120" height="120" fill="#54426A"/>
<g clip-path="url(#clip0_253_2684)">
<path d="M49.7343 41.4287C50.1978 40.6759 54.0073 42.5769 56.8294 49.152C59.6515 55.7271 60.2563 59.3181 61.2453 67.4601C62.2343 75.602 61.7856 77.3413 60.7855 81.7201C59.7854 86.0988 54.3657 93.1808 48.3034 94.0242C42.241 94.8677 36.2621 85.8778 31.1044 78.5533C25.9467 71.2288 28.6711 69.6857 27.3608 65.8702C26.0506 62.0547 24.5571 62.4586 24.0476 60.4106C23.5382 58.3626 24.0111 56.1758 23.5405 52.8334C23.0699 49.4911 21.989 49.9614 21.9123 47.6144C21.8356 45.2674 22.8528 43.1206 23.233 43.4458C23.6133 43.7711 22.6611 45.0598 23.233 47.0533C23.805 49.0468 24.5211 49.4465 25.249 52.5657C25.9769 55.6848 25.552 57.5536 26.1446 59.5289C26.7372 61.5042 28.2191 60.2826 29.9608 64.7274C31.7025 69.1722 28.5256 70.565 33.1114 77.3057C37.6971 84.0464 43.8419 92.0687 48.3034 91.6889C52.7649 91.3092 57.6146 83.9605 58.3767 80.0124C59.1388 76.0643 59.3478 74.3931 58.8482 69.2623C58.3487 64.1315 57.4311 56.9672 55.2083 49.9412C52.9855 42.9152 49.271 42.1814 49.7343 41.4287Z" fill="white"/>
<path d="M28.7746 44.8C28.7746 44.8 33.4186 45.0414 37.7115 43.3483C42.0044 41.6553 45.9463 38.0275 45.9463 38.0275C45.9463 38.0275 46.7835 37.4913 47.3514 38.2237C47.9193 38.9561 47.1202 39.7837 47.1202 39.7837C47.1202 39.7837 42.9596 44.084 38.3731 45.7516C33.7866 47.4192 30.9007 46.6344 28.7746 46.6397C26.6485 46.645 24.3357 46.3759 24.7953 44.8C25.2549 43.224 28.1209 40.3273 30.6136 40.1507C33.1063 39.9742 34.898 44.8 34.898 44.8L32.593 45.2301C32.593 45.2301 32.0513 42.1232 30.6139 42.1232C29.1765 42.1232 26.7327 44.4626 26.7327 44.4626L28.7746 44.8Z" fill="white"/>
<path d="M42.6944 54.6038C43.5332 56.8099 46.6067 56.9086 47.354 55.0267C48.1013 53.1448 45.8121 51.1978 46.4589 50.9389C47.1057 50.68 49.5113 51.6855 49.5607 54.6038C49.6102 57.5222 47.6098 58.6424 45.331 58.6424C43.0522 58.6424 40.6356 57.3314 40.5864 54.6038C40.5373 51.8763 44.1042 50.0015 44.4356 50.5653C44.767 51.1291 41.856 52.3978 42.6944 54.6038Z" fill="white"/>
<path d="M31.3702 55.874C30.4321 57.3336 31.1451 58.3893 33.1546 58.1304C35.164 57.8715 35.3549 56.9852 35.8954 57.4254C36.4358 57.8656 36.1094 58.2715 34.5156 59.4983C32.9218 60.725 29.1628 59.8649 29.1131 57.848C29.0634 55.8311 29.3034 54.182 31.37 53.4768C33.4367 52.7717 36.2279 54.4784 35.8952 55.0418C35.5625 55.6052 32.308 54.4146 31.3702 55.874Z" fill="white"/>
<path d="M37.9488 66.4206C39.2177 66.2443 39.1121 64.8528 40.9098 64.6121C42.7075 64.3714 44.9737 64.8999 45.1394 65.4582C45.305 66.0165 43.8152 65.6579 41.8542 66.4209C39.8932 67.184 39.0767 68.6013 37.5258 68.6506C35.9749 68.7 35.9521 65.4163 36.1161 64.894C36.28 64.3717 36.6799 66.5967 37.9488 66.4206Z" fill="white"/>
<path d="M44.1531 77.672L41.6152 75.5762L40.5363 72.7173C40.5363 72.7173 37.0467 76.0032 37.5754 74.9234C38.1041 73.8435 38.0952 72.0936 39.7396 70.462C41.384 68.8303 42.2775 68.3969 42.2775 68.3969L43.2151 69.01L42.2775 70.4617C42.2775 70.4617 42.9721 73.6447 45.3797 74.9234C47.7873 76.202 50.1088 76.0319 51.9077 75.5762C53.7066 75.1205 53.1644 73.3727 53.0357 72.7172C52.9069 72.0617 51.6749 70.6522 49.9831 69.8487C48.2912 69.0452 42.2779 70.4619 42.2779 70.4619V68.3969C42.2779 68.3969 47.7273 67.0577 50.97 68.3969C54.2127 69.736 54.6692 70.8725 55.2913 73.2815C55.9135 75.6905 54.7129 77.1668 52.7162 78.264C50.7195 79.3613 47.8189 77.1786 46.2188 77.9821C44.6186 78.7857 43.9522 82.1546 41.6152 82.5418C39.2783 82.9291 38.5857 81.7418 37.5758 80.2368C36.5659 78.7318 37.5758 76.5225 37.5758 76.5225C37.5758 76.5225 38.8359 77.85 39.74 78.7786C40.6442 79.7072 39.9707 80.5723 41.1923 80.2375C42.4138 79.9027 44.1531 77.672 44.1531 77.672Z" fill="white"/>
<path d="M61.7635 43.4032C64.6739 35.9133 70.51 26.4652 71.6406 28.1878C72.7713 29.9104 70.1525 31.1749 68.1382 35.0575C66.1239 38.9401 65.0565 41.0595 63.1472 47.4475C61.2378 53.8355 61.0742 56.3992 64.412 63.4629C67.7497 70.5266 71.5736 75.2549 76.4973 75.7023C81.421 76.1498 80.8279 75.7694 82.4618 74.2815C84.0957 72.7935 88.3589 67.2667 90.3732 63.4627C92.3875 59.6587 90.8066 55.455 92.0181 51.1673C93.2295 46.8795 94.5095 48.3927 94.8784 46.312C95.2473 44.2314 94.7152 41.2048 94.5473 37.6639C94.3794 34.123 95.3865 34.0335 94.5473 32.1483C93.7081 30.2631 90.5863 28.1878 91.1904 27.5165C91.7944 26.8452 96.405 30.1344 97.233 31.6224C98.0609 33.1105 97.233 32.5706 97.233 36.243C97.233 39.9154 97.9043 43.7053 97.233 46.312C96.5617 48.9188 95.297 48.5496 94.5473 51.1673C93.7977 53.7849 95.1433 57.9303 92.5331 64.2126C89.923 70.4948 86.423 73.2411 84.1067 76.2955C81.7903 79.3498 81.2755 78.6673 76.4973 78.4547C71.7191 78.2422 66.3048 74.4633 62.6214 65.7005C58.938 56.9377 58.8529 50.8931 61.7635 43.4032Z" fill="white"/>
<path d="M74.9294 40.4262C72.6097 40.8683 72.1641 43.4086 73.888 44.4721C75.612 45.5355 77.3305 43.6329 78.0713 44.3018C78.8122 44.9707 76.8041 47.1777 73.9208 46.7186C71.0375 46.2595 70.2814 44.0947 70.6779 41.8507C71.0743 39.6066 73.0513 38.1313 75.7471 38.5575C78.4429 38.9838 79.0547 41.6453 78.072 41.8529C77.0893 42.0606 77.2487 39.9838 74.9294 40.4262Z" fill="white"/>
<path d="M88.426 46.5327C90.5137 45.4312 89.6289 42.1109 87.6695 41.5987C85.71 41.0865 84.1823 43.8238 83.5318 43.7467C82.8813 43.6696 83.9016 40.6266 86.7922 40.222C89.6828 39.8174 91.0393 41.6659 91.3171 43.9271C91.5948 46.1884 90.1366 48.1771 87.4348 48.5582C84.7329 48.9393 82.3647 47.8721 83.5318 46.5327C84.699 45.1934 86.3381 47.6339 88.426 46.5327Z" fill="white"/>
<path d="M85.709 41.2701H86.6052C86.9135 42.226 87.0788 43.2222 87.0956 44.2265C87.0956 45.7708 86.6052 47.4474 86.6052 47.4474H85.709C85.709 47.4474 86.1994 45.7617 86.1994 44.2173C86.1832 43.216 86.0179 42.2227 85.709 41.2701Z" fill="white"/>
<path d="M78.5773 52.6831C80.0972 52.9179 81.3177 52.4798 82.8999 52.9649C84.4821 53.4499 85.127 54.3086 84.9061 54.623C84.6853 54.9374 84.2238 54.192 82.5241 54.0593C80.8243 53.9266 79.7544 54.2531 78.3284 53.7446C76.9023 53.2362 76.2517 52.467 76.8199 52.0254C77.3881 51.5838 77.0574 52.4482 78.5773 52.6831Z" fill="white"/>
<path d="M69.4671 57.2107C69.3563 55.9372 69.6332 54.1018 72.2681 53.6271C74.9029 53.1525 76.8574 60.2166 78.9143 60.3748C80.9712 60.533 82.9477 57.9483 85.1888 57.527C87.43 57.1057 87.1945 58.1856 87.3014 58.6346C87.4082 59.0835 85.6164 59.3227 85.6164 59.3227C85.6164 59.3227 82.0793 61.158 78.9143 62.3762C75.7493 63.5944 73.0298 54.9284 71.8963 55.6286C70.7629 56.3287 72.3372 62.0795 74.3805 65.1768C76.4238 68.2742 79.6502 67.7557 79.6502 67.7557L80.4415 63.5947V61.0631L82.3526 60.3749V63.5944L81.818 66.8615C81.818 66.8615 84.8723 63.5388 85.6164 63.5944C86.3604 63.6501 84.3346 71.0303 77.3798 69.9229C70.4249 68.8155 69.5779 58.4842 69.4671 57.2107Z" fill="white"/>
<path d="M38.4651 26.5485C51.0232 23.7544 67.7319 32.5445 67.7319 32.5445L65.6207 35.8183C65.6207 35.8183 50.6305 27.349 39.3526 29.9067C28.0747 32.4645 22.0686 41.8983 19.2737 51.2521C16.4788 60.6059 23.1842 72.2862 26.8662 76.5913C30.5481 80.8965 34.0628 82.4674 34.0628 82.4674L40.3001 90.3822C40.3001 90.3822 27.8377 85.6333 21.8765 76.5914C15.9153 67.5495 13.372 61.4215 16.0829 48.458C18.7938 35.4945 25.9071 29.3427 38.4651 26.5485Z" fill="white"/>
<path d="M74.109 28.2476C75.2889 27.9737 79.6704 32.0791 84.0027 31.3784C88.3351 30.6777 87.9275 26.7567 89.2354 26.7567C90.5432 26.7567 88.705 30.9311 89.2354 31.3783C89.7657 31.8255 92.2486 30.4316 92.8449 31.0279C93.4412 31.6243 92.6961 33.8159 87.0819 34.1663C84.5499 34.3243 80.3153 34.1402 77.8815 32.7724C74.9792 31.1413 72.929 28.5216 74.109 28.2476Z" fill="white"/>
<path d="M54.4253 90.9675C54.4253 90.9675 58.5126 91.6067 68.8257 90.3575C79.1387 89.1083 92.8608 77.3273 99.2032 60.3274C105.546 43.3275 96.8746 35.0385 96.8746 35.0385L97.3212 33.3149C97.3212 33.3149 107.494 41.7253 104.423 55.1084C101.353 68.4915 98.7936 74.968 85.039 86.8474C71.2845 98.7269 49.6621 93.6585 49.6621 93.6585L54.4253 90.9675Z" fill="white"/>
</g>
<defs>
<clipPath id="clip0_253_2684">
<rect width="90" height="68.7328" fill="white" transform="translate(15 26)"/>
</clipPath>
</defs>
</svg>
